X:800
T:British swing (N. Pignol)
O:england
C:Trad Mag No 42
M:2/4
L:1/16
K:C
A,2A,EA,-D- A,DA,-E-A,EC-|C3A,- A,B,CE-|\
E2FE DC2B,-|B,3A, G,A,B,C|\
A,2A,EA,-F- A,FA,-E-A,EC-|C3A,- A,B,CE|
DCB,A,- A,B,CD|1 B,8E8:|2  B,4-E4- B,3E3 E-G-\
|:E2G2EE-c- EcE-G-EGE|\
E3B3G- GEGB|z2EA Bcde-|edcB- BA2G-|
E2G2EE-c- EcE-G-EGE|\
E3B3G- GEGB|1 z2AE DE-ED-|\
DCA,B, CDB,2:|2 AEDE- ED-DC|A,B,CD B,4E4||
